X:5843
T:Gan Ainm
R:waltz
S:
H:
N:The transcription doesn't really catch the true 'flavour' of the tune
D:John Carty:At The Racket
Z:Adrian Scahill
M:3/4
L:1/8
K:G 
Bc|dGBdcB|ADFAcB|GAGFDB,|C4B,C|\
DB,DGBG|c3dcB|AdcBcB|A4Bc|\
dGBdcB|ADFAcB|GAGFDB,|C3cBA|\
GB,DGBG|c3BAG|AdcAFA|G4 FG||\
:ADcDBD|ADcDBD|ABAGFG|A3GGF|\
EGBGAB|cdcBAG|AdcAFA|G4FG:||
